forward-electronic/img/youtube.svg

<svg width="123" height="86" viewBox="0 0 123 86" fill="none" xmlns="http://www.w3.org/2000/svg">
  <path d="M117.327 7.92429C112.956 2.77959 104.886 0.68103 89.4733 0.68103H33.5256C17.7602 0.68103 9.5531 2.91496 5.19837 8.39227C0.952637 13.7327 0.952637 21.6013 0.952637 32.4917V53.2488C0.952637 74.347 5.99018 85.0592 33.5256 85.0592H89.4737C102.839 85.0592 110.246 83.2073 115.037 78.6672C119.951 74.0113 122.047 66.4095 122.047 53.2488V32.4917C122.047 21.0069 121.719 13.0918 117.327 7.92429ZM78.6958 45.736L53.2902 58.8824C52.7222 59.1763 52.1011 59.3221 51.4808 59.3221C50.7784 59.3221 50.0776 59.1349 49.4569 58.7629C48.2882 58.0617 47.5745 56.8074 47.5745 55.4545V29.246C47.5745 27.8955 48.2862 26.6424 49.4526 25.9408C50.6194 25.2392 52.0706 25.1912 53.2812 25.8139L78.6869 38.8756C79.9795 39.5401 80.7912 40.8613 80.7931 42.3027C80.7947 43.7453 79.9865 45.0684 78.6958 45.736Z" fill="white"/>
</svg>

<svg width="123" height="86" fill="none" xmlns="http://www.w3.org/2000/svg"><path d="M117.327 7.924C112.956 2.78 104.886.681 89.473.681H33.526C17.76.681 9.553 2.915 5.198 8.392.953 13.732.953 21.602.953 32.492v20.757c0 21.098 5.037 31.81 32.573 31.81h55.948c13.365 0 20.772-1.852 25.563-6.392 4.914-4.656 7.01-12.258 7.01-25.418V32.492c0-11.485-.328-19.4-4.72-24.568zM78.696 45.736L53.29 58.882a3.935 3.935 0 0 1-3.833-.12 3.86 3.86 0 0 1-1.883-3.307V29.246a3.86 3.86 0 0 1 1.879-3.305 3.94 3.94 0 0 1 3.828-.127l25.406 13.062a3.863 3.863 0 0 1 2.106 3.427 3.863 3.863 0 0 1-2.097 3.433z" fill="#fff"/></svg>
